!!!!SEGMENT: T149_Jan-w40p51-52h25m1-8.krn
!!!COM: Janáček, Leoš [Leo Eugen]
!!!OTL: single movement work
!!!AGN: Orchestral
!!!AGN-sub: Programmatic
!!!CNT: Czech
!!!ODT: 1919
!!!OPR: Balada Blanická (Ballad of Blaník), Symphonic Poem for Orchestra
!!!filename: T149_Jan-w40p51-52h25m1-8.krn
**kern	**dynam	**kern	**dynam	**kern	**dynam	**kern	**dynam
*grp:A	*	*grp:A	*	*grp:A	*	*grp:B	*
*part4	*	*part3	*	*part2	*	*part1	*
*staff4	*	*staff3	*	*staff2	*	*staff1	*
*ICstr	*	*ICstr	*	*ICww	*	*ICww	*
*Icello	*	*Iviola	*	*Ifagot	*	*Iclars	*
*I"Violoncello	*	*I"Viola	*	*I"Bassoon 1, 2	*	*I"Clarinet in Bb 1, 2	*
*I'vc	*	*I'vla	*	*I'bn	*	*I'cl	*
*clefF4	*	*clefC3	*	*clefF4	*	*clefG2	*
*	*	*	*	*	*	*ITrd1c2	*
*k[]	*	*k[]	*	*k[]	*	*k[b-e-]	*
*	*	*	*	*	*	*	*
*M4/4	*	*M4/4	*	*M4/4	*	*M4/4	*
=1	=1	=1	=1	=1	=1	=1	=1
!	!	!	!	!	!	!LO:TX:t=[half]=76	!
!	!	!	!	!LO:TX:a:t=I.	!	!LO:TX:a:t=I. Solo	!
(6F	mp	((12fL	mp	(6F	mp	4r	.
.	.	12d-X	.	.	.	.	.
6A-X	.	12dn)	.	6A-X	.	.	.
!	!	!	!	!	!	!LO:TX:a:i:t=espress.	!
.	.	(12d	.	.	.	(4gg	f <
6G	.	12B-X	.	6G	.	.	.
.	.	12c-XJ))	.	.	.	.	.
6F	.	((12fL	.	6F	.	4aa-X	.
.	.	12d-X	.	.	.	.	.
6A-	.	12dn)	.	6A-	.	.	.
.	.	(12d	.	.	.	4ff	.
6G)	.	12B-	.	6G	.	.	.
.	.	12c-J))	.	.	.	.	.
=2	=2	=2	=2	=2	=2	=2	=2
(6F	.	((12fL	.	6F	.	2..bb-	[ >
.	.	12d-X	.	.	.	.	.
6A-X	.	12dn)	.	6A-X	.	.	.
.	.	(12d	.	.	.	.	.
6G	.	12B-X	.	6G	.	.	.
.	.	12c-XJ))	.	.	.	.	.
6F	.	((12fL	.	6F	.	.	.
.	.	12d-X	.	.	.	.	.
6A-	.	12dn)	.	6A-	.	.	.
.	.	(12d	.	.	.	.	.
6G)	.	12B-	.	6G	.	.	.
.	.	.	.	.	.	8aa-X	]
.	.	12c-J))	.	.	.	.	.
!!linebreak:original
=3	=3	=3	=3	=3	=3	=3	=3
(6F	.	((12fL	.	6F	.	8dd-X	.
.	.	12d-X	.	.	.	.	.
.	.	.	.	.	.	[4.cc-X)	.
6A-X	.	12dn)	.	6A-X	.	.	.
.	.	(12d	.	.	.	.	.
6G	.	12B-X	.	6G	.	.	.
.	.	12c-XJ))	.	.	.	.	.
6F	.	((12fL	.	6F	.	8cc-]	.
.	.	12d-X	.	.	.	.	.
.	.	.	.	.	.	8r	.
6A-	.	12dn)	.	6A-	.	.	.
.	.	(12d	.	.	.	4r	.
6G)	.	12B-	.	6G)	.	.	.
.	.	12c-J))	.	.	.	.	.
=4	=4	=4	=4	=4	=4	=4	=4
(6F-X	.	((\12dnL	.	(6F-X	.	1r	.
.	.	12B-X	.	.	.	.	.
6A-X	.	12c-X)	.	6A-X	.	.	.
.	.	(12c-	.	.	.	.	.
6G-X	.	12An	.	6G-X	.	.	.
.	.	12B-J))	.	.	.	.	.
6F-	.	((\12dL	.	6F-	.	.	.
.	.	12B-	.	.	.	.	.
6A-	.	12c-)	.	6A-	.	.	.
.	.	(12c-	.	.	.	.	.
!	!	!	!	!	!LO:HP:t=dimin.	!	!
6G-)	.	12A	.	6G-)	>	.	.
!	!	!	!LO:HP:t=dimin.	!	!	!	!
.	.	12B-J))	>	.	.	.	.
=5	=5	=5	=5	=5	=5	=5	=5
(6F-X	.	((\12dL	.	(6F-X	.	1r	.
.	.	12B-X	.	.	.	.	.
6A-X	.	12c-X)	.	6A-X	.	.	.
.	.	(12c-	.	.	.	.	.
6G-X	.	12A	.	6G-X	.	.	.
.	.	12B-J))	.	.	.	.	.
6F-	.	((\12dL	>	6F-	.	.	.
.	.	12B-	.	.	.	.	.
6A-	.	12c-)	.	6A-	.	.	.
.	.	(12c-	.	.	.	.	.
6G-)	.	12A	.	6G-)	.	.	.
.	.	12B-J))	]	.	.	.	.
!!linebreak:original
=6	=6	=6	=6	=6	=6	=6	=6
!	!	!	!	!LO:TX:a:t=I.	!	!	!
(6E-X	.	((12d-XL	.	(6E-X	>	1r	.
.	.	12An	.	.	.	.	.
6G-X	.	12B-X)	.	6G-X	.	.	.
.	.	(12B-	.	.	.	.	.
6F-X	.	12F#X	.	6F-X	.	.	.
.	.	12GJ))	.	.	.	.	.
6E-	.	((12d-L	.	6E-	.	.	.
.	.	12A	.	.	.	.	.
6G-	.	12B-)	.	6G-	.	.	.
.	.	(12B-	.	.	.	.	.
6F-)	.	12F#	.	6F-)	]]	.	.
.	.	12GJ))	.	.	.	.	.
=7	=7	=7	=7	=7	=7	=7	=7
*	*	*	*	*^	*	*	*
(6AA-X	p	((12cL	p	(>6E-X	[1AA-X	pp	4r	.
.	.	12A-X	.	.	.	.	.	.
6F-X	.	12An)	.	6F-X	.	.	.	.
!	!	!	!	!	!	!	!LO:TX:a:t=Solo	!
.	.	(12A	.	.	.	.	(4a-X	mp <
6E-X	.	12F	.	6E-)	.	.	.	.
.	.	12G-XJ))	.	.	.	.	.	.
6AA-	.	((12cL	.	(6E-	.	.	4a	.
.	.	12A-X	.	.	.	.	.	.
6F-	.	12An)	.	6F-	.	.	.	.
!	!	!LO:TX:a:t=allargando	!	!	!	!	!LO:TX:a:t=allargando	!
.	.	(12A	.	.	.	.	4g-X	[
6E-)	.	12F	.	6E-)	.	.	.	.
.	.	12G-XJ))	.	.	.	.	.	.
=8	=8	=8	=8	=8	=8	=8	=8	=8
!	!	!	!	!	!	!	!LO:TX:a:t=rit.	!
(6AA-X	> >	((12cnL	.	(6E-X	2AA-]	.	2..ff-X	>
.	.	12A-X	.	.	.	.	.	.
6F-X	.	12An)	.	6F-X	.	.	.	.
.	.	(12A	.	.	.	.	.	.
6E-X)	.	12F	.	6E-)	.	.	.	.
.	.	12G-XJ))	.	.	.	.	.	.
2r	] ]	2r	.	2r	2ryy	.	.	.
.	.	.	.	.	.	.	8ee-)	]
*	*	*	*	*v	*v	*	*	*
=	=	=	=	=	=	=	=
*-	*-	*-	*-	*-	*-	*-	*-
!!!system-decoration: [(s1,s2)][(s3,s4)]
!!!EED2: Rafael Laurindo
!!!EEV2: 2022/03/25
!!!RDF**kern: > = above
!!!Suter_Work_ID: Jan-40
!!!Suter_Example_Number: 149
!!!Suter_Example_ID: Jan-40/51-52/[25]1-8
!!!Premiere_Location: Brno,Czech Republic
!!!Other_Tsigs: none
!!!Full_Unit_Duration: 7:39
!!!First_Publication_Year: 1958
!!!First_Public_Performance_Year: 1920
!!!Example_Total_Measures: 8
!!!Example_Timestamp_Duration: 16
!!!Example_Start_Tsig_Type: simple duple
!!!Example_Start_Tsig_Mean_Beat_Rate: 76
!!!Example_Start_Tsig_Beat_Rate: 76
!!!Example_Start_Tsig_Beat: half
!!!Example_Start_Tsig: 2/2
!!!Example_Start_Timestamp: 6:01
!!!Example_Start_Tempo_Expression: [Tempo I (Con moto)]
!!!Example_Start_Notated_Beat_Rate: [76]
!!!Example_Start_Notated_Beat: [half]
!!!Example_Start_Measure: 249
!!!Example_Metadata_Validated: Y
!!!Example_End_Timestamp: 6:17
!!!Example_End_Measure: 256
!!!Example_Dataset: T
!!!Editorial_Comments: Example Start Notated Beat and Example Start Notated Beat Rate [half=72] based on most recent notated beat rate (SWFU, m. 246). Example Start Tempo Expression [Tempo I (Con moto)] based on most recent notated tempo expressions (SWFU, m. 1 and m. 246).
!!!Death_Place: Moravaská Ostrava,Czech Republic
!!!Death_Date: 12-Aug-1928
!!!Changing_Tsig: no
!!!Birth_Place: Hukvaldy,Moravia
!!!Birth_Date: 3-Jul-1854
!!!Audio_Example_Quarter_Note_Tempo:
!!!Audio_Example_Duration:
!!!RDF**kern: < = below
